packages/icons/svg/Fill/corner-right-up.svg

<svg fill="none" height="24" viewBox="0 0 24 24" width="24" xmlns="http://www.w3.org/2000/svg"><path clip-rule="evenodd" d="m18.6245 8.21924-5-4c-.365-.292-.884-.292-1.249 0l-5 4c-.432.345-.501.974-.156 1.405.344.43096.974.50096 1.405.157l3.375-2.701v8.91996c0 .551-.448 1-1 1h-5c-.552 0-1 .448-1 1s.448 1 1 1h5c1.655 0 3-1.346 3-3v-8.91996l3.376 2.701c.184.147.405.21896.624.21896.293 0 .584-.12896.781-.37596.345-.431.276-1.06-.156-1.405" fill="#6b7280" fill-rule="evenodd"/></svg>

<svg width="24" height="24" viewBox="0 0 24 24" fill="none" xmlns="http://www.w3.org/2000/svg">
<g id="Icon/Fill/corner-right-up">
<path id="Mask" fill-rule="evenodd" clip-rule="evenodd" d="M18.6245 8.21918L13.6245 4.21918C13.2595 3.92718 12.7405 3.92718 12.3755 4.21918L7.37551 8.21918C6.94351 8.56418 6.87451 9.19318 7.21951 9.62418C7.56351 10.0552 8.19351 10.1252 8.62451 9.78118L11.9995 7.08018V16.0002C11.9995 16.5512 11.5515 17.0002 10.9995 17.0002H5.99951C5.44751 17.0002 4.99951 17.4482 4.99951 18.0002C4.99951 18.5522 5.44751 19.0002 5.99951 19.0002H10.9995C12.6545 19.0002 13.9995 17.6542 13.9995 16.0002V7.08018L17.3755 9.78118C17.5595 9.92818 17.7805 10.0002 17.9995 10.0002C18.2925 10.0002 18.5835 9.87118 18.7805 9.62418C19.1255 9.19318 19.0565 8.56418 18.6245 8.21918Z" fill="#000000"/>
</g>
</svg>
